src/assets/icons/file-paragraph 1.svg

<svg width="24" height="24" viewBox="0 0 24 24" fill="none" xmlns="http://www.w3.org/2000/svg">
<path d="M2 1V23C2 23.2652 2.10536 23.5196 2.29289 23.7071C2.48043 23.8946 2.73478 24 3 24H21C21.2652 24 21.5196 23.8946 21.7071 23.7071C21.8946 23.5196 22 23.2652 22 23V1C22 0.734784 21.8946 0.48043 21.7071 0.292893C21.5196 0.105357 21.2652 0 21 0L3 0C2.73478 0 2.48043 0.105357 2.29289 0.292893C2.10536 0.48043 2 0.734784 2 1ZM5 5H11V11H5V5ZM19 19H5V17H19V19ZM19 15H5V13H19V15ZM19 11H13V9H19V11ZM19 7H13V5H19V7Z" fill="#3629B7"/>
</svg>

<svg xmlns="http://www.w3.org/2000/svg" width="24" height="24" fill="none" viewBox="0 0 24 24">
  <path fill="#3629B7" d="M2 1v22a1 1 0 0 0 1 1h18a1 1 0 0 0 1-1V1a1 1 0 0 0-1-1H3a1 1 0 0 0-1 1Zm3 4h6v6H5V5Zm14 14H5v-2h14v2Zm0-4H5v-2h14v2Zm0-4h-6V9h6v2Zm0-4h-6V5h6v2Z"/>
</svg>
